assets/Eye.svg

<svg width="64" height="64" viewBox="0 0 64 64" fill="none" xmlns="http://www.w3.org/2000/svg">
<path d="M61.3696 31.3924C61.2846 31.1974 59.2046 26.5849 54.5596 21.9399C50.2496 17.6349 42.8446 12.4999 31.9996 12.4999C21.1546 12.4999 13.7496 17.6349 9.43963 21.9399C4.79463 26.5849 2.71464 31.1899 2.62964 31.3924C2.54417 31.5844 2.5 31.7922 2.5 32.0024C2.5 32.2125 2.54417 32.4204 2.62964 32.6124C2.71464 32.8049 4.79463 37.4174 9.43963 42.0624C13.7496 46.3674 21.1546 51.4999 31.9996 51.4999C42.8446 51.4999 50.2496 46.3674 54.5596 42.0624C59.2046 37.4174 61.2846 32.8124 61.3696 32.6124C61.4551 32.4204 61.4993 32.2125 61.4993 32.0024C61.4993 31.7922 61.4551 31.5844 61.3696 31.3924ZM31.9996 48.4999C24.1546 48.4999 17.3046 45.6449 11.6371 40.0174C9.26132 37.6562 7.25088 34.954 5.67213 31.9999C7.25043 29.0462 9.26093 26.3447 11.6371 23.9849C17.3046 18.3549 24.1546 15.4999 31.9996 15.4999C39.8446 15.4999 46.6946 18.3549 52.3621 23.9849C54.7383 26.3447 56.7488 29.0462 58.3271 31.9999C56.7346 35.0524 48.7496 48.4999 31.9996 48.4999ZM31.9996 20.4999C29.7251 20.4999 27.5017 21.1743 25.6106 22.438C23.7194 23.7016 22.2454 25.4977 21.375 27.599C20.5046 29.7004 20.2769 32.0126 20.7206 34.2434C21.1643 36.4742 22.2596 38.5233 23.8679 40.1316C25.4762 41.7399 27.5253 42.8352 29.7561 43.2789C31.9869 43.7226 34.2991 43.4949 36.4005 42.6245C38.5018 41.7541 40.2979 40.2801 41.5615 38.3889C42.8252 36.4978 43.4996 34.2744 43.4996 31.9999C43.4957 28.9511 42.2828 26.0283 40.127 23.8725C37.9712 21.7167 35.0484 20.5038 31.9996 20.4999ZM31.9996 40.4999C30.3185 40.4999 28.6751 40.0014 27.2773 39.0674C25.8795 38.1334 24.79 36.8059 24.1467 35.2527C23.5033 33.6995 23.335 31.9905 23.663 30.3416C23.9909 28.6928 24.8005 27.1782 25.9892 25.9895C27.178 24.8007 28.6925 23.9912 30.3414 23.6632C31.9902 23.3352 33.6993 23.5036 35.2524 24.1469C36.8056 24.7902 38.1331 25.8797 39.0671 27.2775C40.0011 28.6754 40.4996 30.3187 40.4996 31.9999C40.4996 34.2542 39.6041 36.4162 38.01 38.0103C36.416 39.6043 34.254 40.4999 31.9996 40.4999Z" fill="#50CDE4"/>
</svg>

<svg xmlns="http://www.w3.org/2000/svg" width="64" height="64" fill="none"><path fill="#50CDE4" d="M61.37 31.392c-.085-.195-2.165-4.807-6.81-9.452C50.25 17.635 42.845 12.5 32 12.5s-18.25 5.135-22.56 9.44c-4.645 4.645-6.725 9.25-6.81 9.452a1.5 1.5 0 0 0 0 1.22c.085.193 2.165 4.805 6.81 9.45C13.75 46.367 21.155 51.5 32 51.5s18.25-5.133 22.56-9.438c4.645-4.645 6.725-9.25 6.81-9.45a1.5 1.5 0 0 0 0-1.22M32 48.5c-7.845 0-14.695-2.855-20.363-8.483A33.7 33.7 0 0 1 5.672 32a33.6 33.6 0 0 1 5.965-8.015C17.305 18.355 24.155 15.5 32 15.5s14.695 2.855 20.362 8.485A33.6 33.6 0 0 1 58.327 32C56.735 35.052 48.75 48.5 32 48.5m0-28A11.5 11.5 0 1 0 43.5 32 11.515 11.515 0 0 0 32 20.5m0 20a8.5 8.5 0 1 1 0-17 8.5 8.5 0 0 1 0 17"/></svg>
